frontend/src/images/edit-icon.svg

<svg width="19" height="19" viewBox="0 0 19 19" fill="none" xmlns="http://www.w3.org/2000/svg">
<path d="M2 17H3.4L12.025 8.375L10.625 6.975L2 15.6V17ZM16.3 6.925L12.05 2.725L13.45 1.325C13.8333 0.941667 14.3043 0.75 14.863 0.75C15.4217 0.75 15.8923 0.941667 16.275 1.325L17.675 2.725C18.0583 3.10833 18.2583 3.571 18.275 4.113C18.2917 4.655 18.1083 5.11733 17.725 5.5L16.3 6.925ZM14.85 8.4L4.25 19H0V14.75L10.6 4.15L14.85 8.4ZM11.325 7.675L10.625 6.975L12.025 8.375L11.325 7.675Z" fill="#388883"/>
</svg>

<svg xmlns="http://www.w3.org/2000/svg" width="19" height="19" fill="none"><path fill="#388883" d="M2 17h1.4l8.625-8.625-1.4-1.4L2 15.6V17ZM16.3 6.925l-4.25-4.2 1.4-1.4A1.92 1.92 0 0 1 14.863.75c.559 0 1.03.192 1.412.575l1.4 1.4c.383.383.583.846.6 1.388a1.804 1.804 0 0 1-.55 1.387L16.3 6.925ZM14.85 8.4 4.25 19H0v-4.25l10.6-10.6 4.25 4.25Zm-3.525-.725-.7-.7 1.4 1.4-.7-.7Z"/></svg>
